icons/triangle-percent-outline.svg

<svg xmlns="http://www.w3.org/2000/svg" width="24" height="24" viewBox="0 0 24 24">
  <path d="M9.37135227,3.70432092 C10.1698214,2.25255887 11.9939942,1.72296031 13.4457562,2.52142944 C13.9442354,2.79559297 14.3544842,3.20584177 14.6286477,3.70432092 L14.6286477,3.70432092 L22.2461053,17.5542438 C23.0445744,19.0060058 22.5149759,20.8301786 21.0632138,21.6286477 C20.6202789,21.8722619 20.1229665,22 19.6174576,22 L19.6174576,22 L4.38254244,22 C2.72568819,22 1.38254244,20.6568542 1.38254244,19 C1.38254244,18.4944911 1.5102805,17.9971787 1.75389472,17.5542438 L1.75389472,17.5542438 Z M12.3764912,4.2235543 C11.9128771,4.03449217 11.3709293,4.2188035 11.1237841,4.66815842 L11.1237841,4.66815842 L3.50632653,18.5180813 C3.42512179,18.6657262 3.38254244,18.831497 3.38254244,19 C3.38254244,19.5522847 3.83025769,20 4.38254244,20 L4.38254244,20 L19.6174576,20 C19.7859605,20 19.9517313,19.9574206 20.0993763,19.8762159 C20.583297,19.6100595 20.7598298,19.0020019 20.4936735,18.5180813 L20.4936735,18.5180813 L12.8762159,4.66815842 C12.7848281,4.5019987 12.6480785,4.3652491 12.4819187,4.27386126 L12.4819187,4.27386126 Z M14.7071068,16.2928932 C15.0976311,16.6834175 15.0976311,17.3165825 14.7071068,17.7071068 C14.3165825,18.0976311 13.6834175,18.0976311 13.2928932,17.7071068 C12.9023689,17.3165825 12.9023689,16.6834175 13.2928932,16.2928932 C13.6834175,15.9023689 14.3165825,15.9023689 14.7071068,16.2928932 Z M14.7071068,12.2928932 C15.0675907,12.6533772 15.0953203,13.2206082 14.7902954,13.6128994 L14.7071068,13.7071068 L10.7071068,17.7071068 C10.3165825,18.0976311 9.68341751,18.0976311 9.29289322,17.7071068 C8.93240926,17.3466228 8.90467972,16.7793918 9.20970461,16.3871006 L9.29289322,16.2928932 L13.2928932,12.2928932 C13.6834175,11.9023689 14.3165825,11.9023689 14.7071068,12.2928932 Z M10.7071068,12.2928932 C11.0976311,12.6834175 11.0976311,13.3165825 10.7071068,13.7071068 C10.3165825,14.0976311 9.68341751,14.0976311 9.29289322,13.7071068 C8.90236893,13.3165825 8.90236893,12.6834175 9.29289322,12.2928932 C9.68341751,11.9023689 10.3165825,11.9023689 10.7071068,12.2928932 Z"/>
</svg>

<svg xmlns="http://www.w3.org/2000/svg" viewBox="0 0 24 24">
  <path d="M9.37 3.7a3 3 0 0 1 5.26 0l7.62 13.85A3 3 0 0 1 19.62 22H4.38a3 3 0 0 1-2.63-4.45zm3 .52a1 1 0 0 0-1.25.45L3.51 18.52A1 1 0 0 0 4.38 20h15.24a1 1 0 0 0 .87-1.48L12.88 4.67a1 1 0 0 0-.4-.4zm2.34 12.07a1 1 0 1 1-1.42 1.42 1 1 0 0 1 1.42-1.42zm0-4a1 1 0 0 1 .08 1.32l-.08.1-4 4a1 1 0 0 1-1.5-1.32l.08-.1 4-4a1 1 0 0 1 1.42 0zm-4 0a1 1 0 1 1-1.42 1.42 1 1 0 0 1 1.42-1.42z"/>
</svg>
